src/static/imagenes/upcoming.svg

<svg id="icon_upcoming" viewBox="0 0 30 23" width="100%" height="100%">
        <title>Upcoming</title>
        <path d="M27.8791228,1.5271345 C29.0162573,1.5271345 29.9415205,2.4522807 29.9415789,3.58947368 L29.9415789,20.4650877 C29.9415789,21.6022807 29.0163743,22.5274854 27.8791813,22.5274854 L2.06239766,22.5274854 C0.925204678,22.5274854 0,21.6022807 0,20.4650877 L0,3.58947368 C0,2.4522807 0.925204678,1.5271345 2.0622807,1.5271345 L6.60672515,1.5271345 L6.60672515,0.733040936 C6.60672515,0.353391813 6.91450292,0.0455555556 7.29421053,0.0455555556 C7.67391813,0.0455555556 7.98169591,0.353333333 7.98169591,0.733040936 L7.98169591,1.5271345 L11.7244444,1.5271345 L11.7244444,0.733040936 C11.7244444,0.353391813 12.0322222,0.0455555556 12.4119298,0.0455555556 C12.7916374,0.0455555556 13.0994152,0.353333333 13.0994152,0.733040936 L13.0994152,1.5271345 L16.8420468,1.5271345 L16.8420468,0.733040936 C16.8420468,0.353391813 17.1498246,0.0455555556 17.5295322,0.0455555556 C17.9091813,0.0455555556 18.2170175,0.353333333 18.2170175,0.733040936 L18.2170175,1.5271345 L21.9597661,1.5271345 L21.9597661,0.733040936 C21.9597661,0.353391813 22.2676608,0.0455555556 22.6472515,0.0455555556 C23.0269591,0.0455555556 23.3347368,0.353333333 23.3347368,0.733040936 L23.3347368,1.5271345 L27.8791228,1.5271345 Z M24.2157895,8.69216374 C23.8182736,8.69216374 23.4960234,8.36991349 23.4960234,7.97239766 C23.4960234,7.57488183 23.8182736,7.25263158 24.2157895,7.25263158 C24.6133053,7.25263158 24.9355556,7.57488183 24.9355556,7.97239766 C24.9355556,8.36991349 24.6133053,8.69216374 24.2157895,8.69216374 Z M19.5933333,8.69216374 C19.1958175,8.69216374 18.8735673,8.36991349 18.8735673,7.97239766 C18.8735673,7.57488183 19.1958175,7.25263158 19.5933333,7.25263158 C19.9908492,7.25263158 20.3130994,7.57488183 20.3130994,7.97239766 C20.3130994,8.36991349 19.9908492,8.69216374 19.5933333,8.69216374 Z M14.9708187,8.69216374 C14.5733029,8.69216374 14.2510526,8.36991349 14.2510526,7.97239766 C14.2510526,7.57488183 14.5733029,7.25263158 14.9708187,7.25263158 C15.3683345,7.25263158 15.6905848,7.57488183 15.6905848,7.97239766 C15.6905848,8.36991349 15.3683345,8.69216374 14.9708187,8.69216374 Z M10.3483626,8.69216374 C9.95084674,8.69216374 9.62859649,8.36991349 9.62859649,7.97239766 C9.62859649,7.57488183 9.95084674,7.25263158 10.3483626,7.25263158 C10.7458784,7.25263158 11.0681287,7.57488183 11.0681287,7.97239766 C11.0681287,8.36991349 10.7458784,8.69216374 10.3483626,8.69216374 Z M5.72584795,8.69216374 C5.32833212,8.69216374 5.00608187,8.36991349 5.00608187,7.97239766 C5.00608187,7.57488183 5.32833212,7.25263158 5.72584795,7.25263158 C6.12336378,7.25263158 6.44561404,7.57488183 6.44561404,7.97239766 C6.44561404,8.36991349 6.12336378,8.69216374 5.72584795,8.69216374 Z M24.2157895,13.3146784 C23.8182736,13.3146784 23.4960234,12.9924281 23.4960234,12.5949123 C23.4960234,12.1973965 23.8182736,11.8751462 24.2157895,11.8751462 C24.6133053,11.8751462 24.9355556,12.1973965 24.9355556,12.5949123 C24.9355556,12.9924281 24.6133053,13.3146784 24.2157895,13.3146784 Z M19.5933333,13.3146784 C19.1958175,13.3146784 18.8735673,12.9924281 18.8735673,12.5949123 C18.8735673,12.1973965 19.1958175,11.8751462 19.5933333,11.8751462 C19.9908492,11.8751462 20.3130994,12.1973965 20.3130994,12.5949123 C20.3130994,12.9924281 19.9908492,13.3146784 19.5933333,13.3146784 Z M14.9708187,13.3146784 C14.5733029,13.3146784 14.2510526,12.9924281 14.2510526,12.5949123 C14.2510526,12.1973965 14.5733029,11.8751462 14.9708187,11.8751462 C15.3683345,11.8751462 15.6905848,12.1973965 15.6905848,12.5949123 C15.6905848,12.9924281 15.3683345,13.3146784 14.9708187,13.3146784 Z M5.72584795,13.3146784 C5.32833212,13.3146784 5.00608187,12.9924281 5.00608187,12.5949123 C5.00608187,12.1973965 5.32833212,11.8751462 5.72584795,11.8751462 C6.12336378,11.8751462 6.44561404,12.1973965 6.44561404,12.5949123 C6.44561404,12.9924281 6.12336378,13.3146784 5.72584795,13.3146784 Z M24.2157895,17.9371345 C23.8182736,17.9371345 23.4960234,17.6148843 23.4960234,17.2173684 C23.4960234,16.8198526 23.8182736,16.4976023 24.2157895,16.4976023 C24.6133053,16.4976023 24.9355556,16.8198526 24.9355556,17.2173684 C24.9355556,17.6148843 24.6133053,17.9371345 24.2157895,17.9371345 Z M19.5933333,17.9371345 C19.1958175,17.9371345 18.8735673,17.6148843 18.8735673,17.2173684 C18.8735673,16.8198526 19.1958175,16.4976023 19.5933333,16.4976023 C19.9908492,16.4976023 20.3130994,16.8198526 20.3130994,17.2173684 C20.3130994,17.6148843 19.9908492,17.9371345 19.5933333,17.9371345 Z M14.9708187,17.9371345 C14.5733029,17.9371345 14.2510526,17.6148843 14.2510526,17.2173684 C14.2510526,16.8198526 14.5733029,16.4976023 14.9708187,16.4976023 C15.3683345,16.4976023 15.6905848,16.8198526 15.6905848,17.2173684 C15.6905848,17.6148843 15.3683345,17.9371345 14.9708187,17.9371345 Z M10.3483626,17.9371345 C9.95084674,17.9371345 9.62859649,17.6148843 9.62859649,17.2173684 C9.62859649,16.8198526 9.95084674,16.4976023 10.3483626,16.4976023 C10.7458784,16.4976023 11.0681287,16.8198526 11.0681287,17.2173684 C11.0681287,17.6148843 10.7458784,17.9371345 10.3483626,17.9371345 Z M5.72584795,17.9371345 C5.32833212,17.9371345 5.00608187,17.6148843 5.00608187,17.2173684 C5.00608187,16.8198526 5.32833212,16.4976023 5.72584795,16.4976023 C6.12336378,16.4976023 6.44561404,16.8198526 6.44561404,17.2173684 C6.44561404,17.6148843 6.12336378,17.9371345 5.72584795,17.9371345 Z M12.5204678,9.80409357 C12.8621637,9.80409357 13.1391813,10.0811111 13.1391813,10.422924 L13.1391813,14.7673099 C13.1391813,15.1090643 12.8622222,15.3860234 12.5204678,15.3860234 L8.17602339,15.3860234 C7.83426901,15.3860234 7.55730994,15.1090643 7.55730994,14.7673099 L7.55730994,10.422807 C7.55730994,10.0810526 7.83426901,9.80409357 8.17602339,9.80409357 L12.5204678,9.80409357 Z M11.9017544,14.148538 L11.9016959,14.148538 L11.9016959,11.0415789 L8.79473684,11.0415789 L8.79473684,14.148538 L11.9017544,14.148538 Z M27.8791228,21.1526316 C28.2581871,21.1526316 28.5666082,20.8442105 28.5667251,20.4650877 L28.5666667,20.4650877 L28.5666667,3.58947368 C28.5666667,3.21040936 28.2582456,2.9019883 27.8791813,2.9019883 L23.3347953,2.9019883 L23.3347953,3.69602339 C23.3347953,4.07567251 23.0270175,4.38350877 22.6473099,4.38350877 C22.2676608,4.38350877 21.9598246,4.07561404 21.9598246,3.69602339 L21.9598246,2.9019883 L18.217076,2.9019883 L18.217076,3.69602339 C18.217076,4.07567251 17.9091813,4.38350877 17.5295906,4.38350877 C17.149883,4.38350877 16.8421053,4.07561404 16.8421053,3.69602339 L16.8421053,2.9019883 L13.0994737,2.9019883 L13.0994737,3.69602339 C13.0994737,4.07567251 12.7916959,4.38350877 12.4119883,4.38350877 C12.0322807,4.38350877 11.7245029,4.07561404 11.7245029,3.69602339 L11.7245029,2.9019883 L7.98175439,2.9019883 L7.98175439,3.69602339 C7.98175439,4.07567251 7.67397661,4.38350877 7.29426901,4.38350877 C6.9145614,4.38350877 6.60678363,4.07561404 6.60678363,3.69602339 L6.60678363,2.9019883 L2.06239766,2.9019883 C1.68333333,2.9019883 1.37491228,3.21040936 1.37491228,3.58947368 L1.37491228,20.4651462 C1.37491228,20.8442105 1.68333333,21.1526316 2.06239766,21.1526316 L27.8791228,21.1526316 Z" fill-rule="nonzero"></path>
      </svg>

<svg xmlns="http://www.w3.org/2000/svg" viewBox="0 0 30 23"><path d="M27.88 1.527c1.136 0 2.062.925 2.062 2.062v16.876a2.065 2.065 0 01-2.063 2.062H2.062A2.065 2.065 0 010 20.465V3.59c0-1.137.925-2.062 2.062-2.062h4.545V.733a.687.687 0 011.375 0v.794h3.742V.733a.687.687 0 011.375 0v.794h3.743V.733a.687.687 0 011.375 0v.794h3.743V.733a.688.688 0 011.375 0v.794h4.544zm-3.664 7.165a.72.72 0 110-1.44.72.72 0 010 1.44zm-4.623 0a.72.72 0 110-1.44.72.72 0 010 1.44zm-4.622 0a.72.72 0 110-1.44.72.72 0 010 1.44zm-4.623 0a.72.72 0 110-1.44.72.72 0 010 1.44zm-4.622 0a.72.72 0 110-1.44.72.72 0 010 1.44zm18.49 4.623a.72.72 0 110-1.44.72.72 0 010 1.44zm-4.623 0a.72.72 0 110-1.44.72.72 0 010 1.44zm-4.622 0a.72.72 0 110-1.44.72.72 0 010 1.44zm-9.245 0a.72.72 0 110-1.44.72.72 0 010 1.44zm18.49 4.622a.72.72 0 110-1.44.72.72 0 010 1.44zm-4.623 0a.72.72 0 110-1.44.72.72 0 010 1.44zm-4.622 0a.72.72 0 110-1.44.72.72 0 010 1.44zm-4.623 0a.72.72 0 110-1.44.72.72 0 010 1.44zm-4.622 0a.72.72 0 110-1.44.72.72 0 010 1.44zm6.794-8.133c.342 0 .62.277.62.619v4.344a.619.619 0 01-.62.619H8.176a.619.619 0 01-.619-.619v-4.344c0-.342.277-.619.619-.619h4.344zm-.618 4.345v-3.107H8.795v3.107h3.107zm15.977 7.004c.38 0 .688-.309.688-.688V3.59a.688.688 0 00-.688-.687h-4.544v.794a.687.687 0 01-1.375 0v-.794h-3.743v.794a.688.688 0 01-1.375 0v-.794H13.1v.794a.687.687 0 01-1.374 0v-.794H7.982v.794a.687.687 0 01-1.375 0v-.794H2.062a.688.688 0 00-.687.687v16.876c0 .38.308.688.687.688H27.88z"/></svg>
